polaris-icons/icons/new-icons/CircleUpMajor.svg

<svg width="20" height="20" viewBox="0 0 20 20" fill="none" xmlns="http://www.w3.org/2000/svg">
<path d="M10.75 13.5C10.75 13.9142 10.4142 14.25 10 14.25C9.58579 14.25 9.25 13.9142 9.25 13.5V8.31066L8.03033 9.53033C7.73744 9.82322 7.26256 9.82322 6.96967 9.53033C6.67678 9.23744 6.67678 8.76256 6.96967 8.46967L9.46967 5.96967C9.76256 5.67678 10.2374 5.67678 10.5303 5.96967L13.0303 8.46967C13.3232 8.76256 13.3232 9.23744 13.0303 9.53033C12.7374 9.82322 12.2626 9.82322 11.9697 9.53033L10.75 8.31066V13.5Z" fill="#4A4A4A"/>
<path fill-rule="evenodd" clip-rule="evenodd" d="M17 10C17 13.866 13.866 17 10 17C6.13401 17 3 13.866 3 10C3 6.13401 6.13401 3 10 3C13.866 3 17 6.13401 17 10ZM15.5 10C15.5 13.0376 13.0376 15.5 10 15.5C6.96243 15.5 4.5 13.0376 4.5 10C4.5 6.96243 6.96243 4.5 10 4.5C13.0376 4.5 15.5 6.96243 15.5 10Z" fill="#4A4A4A"/>
</svg>

<svg viewBox="0 0 20 20" xmlns="http://www.w3.org/2000/svg"><path d="M10.75 13.5a.75.75 0 0 1-1.5 0v-5.19l-1.22 1.22a.75.75 0 0 1-1.06-1.06l2.5-2.5a.75.75 0 0 1 1.06 0l2.5 2.5a.75.75 0 0 1-1.06 1.06l-1.22-1.22v5.19Z" fill="#5C5F62"/><path fill-rule="evenodd" d="M17 10a7 7 0 1 1-14 0 7 7 0 0 1 14 0Zm-1.5 0a5.5 5.5 0 1 1-11 0 5.5 5.5 0 0 1 11 0Z" fill="#5C5F62"/></svg>
